X: 1726
T: Billy Taylor's Fancy   #2
R: hornpipe, reel
%S: s:3 b:14(6+4+4)
B: O'Neill's 1850 #1726
O: Gillan
Z: A.LEE WORMAN
Z: Bob Safranek, rjs@gsp.org
N: Compacted via repeats and multiple endings [JC]
M: C|
L: 1/8
K: G
"^A"[|] D>F \
|: G>AB>c d>Be>c | d>gf>g b>gd>B | (3cBA e>c [1,3 (3BAG d>B | (3ABG (3FGE D>cB>A :|[2,4 (3BAG (3AGF | G>BA>F G2 :|
"^B"|: (f>g) \
| a>g (3fge d>ef>g | (3agf (3gfe d>ef>g | (3agf (3bag (3agf (3gfe | d>gg>c (3BAG (3AGF |
| G>AB>c d>Be>c | d>gf>g b>gd>B | (3cBA e>c (3BAG (3AGF | G>BA>F G2 :|
